/JOB
//NAME courtTRJ0
///FOLDERNAME DEMO
//POS
///NPOS 171,0,171,0,0,0
///USER 2
///TOOL 7
///POSTYPE USER
///RECTAN
///RCONF 1,0,0,0,0,0,0,0,0,0,0,0,0,0,0,0,0,0,0,0,0,0,0,0
C00000=0.000,100.000,0.000,-180.0000,0.0000,-90.0000
C00001=21.365,96.662,89.443,-179.6771,-0.7971,-102.4636
C00002=27.983,96.002,89.878,179.9979,-0.0543,-106.2505
C00003=34.834,93.736,90.162,-179.9980,-0.0054,-110.3860
C00004=41.650,90.913,90.162,-179.9976,-0.0052,-114.6140
C00005=48.097,87.670,89.878,179.9969,-0.0540,-118.7498
C00006=53.243,83.458,89.443,179.6739,-0.7993,-122.5363
C00007=55.387,77.537,89.008,178.5849,-1.1940,-125.5394
C00008=54.067,71.124,88.468,177.0304,-0.5081,-127.2413
C00009=49.554,65.004,87.424,176.6978,-0.0087,-127.3191
C00010=44.341,58.339,85.234,176.6315,-0.0113,-127.2369
C00011=39.437,52.115,82.228,176.7520,-0.0208,-127.1159
C00012=35.631,47.192,79.173,177.8236,-0.0563,-127.0536
C00013=33.888,43.637,76.900,-168.1624,8.4405,-127.8325
C00014=35.253,40.746,75.988,-174.0559,26.5997,-130.8660
C00015=36.906,39.124,75.948,179.8313,28.1098,-133.3290
C00016=38.025,38.025,75.975,-180.0000,28.0967,-135.0000
C00017=39.124,36.906,75.948,-179.8313,28.1098,-136.6710
C00018=40.746,35.253,75.988,174.0559,26.5997,-139.1340
C00019=43.637,33.888,76.901,168.1624,8.4405,-142.1675
C00020=47.192,35.631,79.173,-177.8236,-0.0563,-142.9464
C00021=52.115,39.437,82.228,-176.7520,-0.0208,-142.8841
C00022=58.339,44.341,85.234,-176.6315,-0.0113,-142.7631
C00023=65.004,49.554,87.424,-176.6978,-0.0087,-142.6809
C00024=71.124,54.067,88.468,-177.0304,-0.5081,-142.7587
C00025=77.537,55.387,89.008,-178.5849,-1.1940,-144.4606
C00026=83.458,53.243,89.443,-179.6739,-0.7993,-147.4637
C00027=87.670,48.097,89.878,-179.9969,-0.0540,-151.2502
C00028=90.913,41.650,90.162,179.9976,-0.0052,-155.3860
C00029=93.736,34.834,90.162,179.9980,-0.0054,-159.6140
C00030=96.002,27.983,89.878,-179.9979,-0.0543,-163.7495
C00031=96.662,21.365,89.443,179.6771,-0.7971,-167.5364
C00032=93.991,15.662,89.008,178.5867,-1.1939,-170.5396
C00033=88.524,12.061,88.468,177.0328,-0.5045,-172.2415
C00034=81.005,10.924,87.424,176.6961,-0.0057,-172.3197
C00035=72.606,9.898,85.234,176.6314,-0.0094,-172.2370
C00036=64.737,8.965,82.228,176.7507,-0.0188,-172.1156
C00037=58.565,8.175,79.173,177.8225,-0.0548,-172.0535
C00038=54.818,6.894,76.900,-168.1623,8.4382,-172.8320
C00039=53.739,3.884,75.988,-174.0567,26.6026,-175.8661
C00040=53.762,1.568,75.948,179.8334,28.1117,-178.3294
C00041=53.776,0.000,75.975,-180.0000,28.1001,-180.0000
C00042=53.762,-1.568,75.948,-179.8334,28.1117,-181.6706
C00043=53.739,-3.885,75.988,174.0562,26.6025,-184.1349
C00044=54.819,-6.894,76.901,168.1623,8.4383,-187.1678
C00045=58.565,-8.175,79.173,-177.8225,-0.0548,-187.9465
C00046=64.737,-8.965,82.228,-176.7507,-0.0188,-187.8844
C00047=72.606,-9.898,85.234,-176.6314,-0.0094,-187.7630
C00048=81.005,-10.924,87.424,-176.6961,-0.0057,-187.6803
C00049=88.524,-12.061,88.468,-177.0328,-0.5045,-187.7585
C00050=93.991,-15.662,89.008,-178.5867,-1.1939,-189.4604
C00051=96.662,-21.365,89.443,-179.6771,-0.7971,-192.4636
C00052=96.002,-27.983,89.878,179.9979,-0.0543,-196.2505
C00053=93.736,-34.834,90.162,-179.9980,-0.0054,-200.3860
C00054=90.913,-41.650,90.162,-179.9976,-0.0052,-204.6140
C00055=87.670,-48.097,89.878,179.9969,-0.0540,-208.7498
C00056=83.458,-53.243,89.443,179.6739,-0.7993,-212.5363
C00057=77.537,-55.387,89.008,178.5849,-1.1940,-215.5394
C00058=71.124,-54.067,88.468,177.0304,-0.5081,-217.2413
C00059=65.004,-49.554,87.424,176.6978,-0.0087,-217.3191
C00060=58.339,-44.341,85.234,176.6315,-0.0113,-217.2369
C00061=52.115,-39.437,82.228,176.7520,-0.0208,-217.1159
C00062=47.192,-35.631,79.173,177.8236,-0.0563,-217.0536
C00063=43.637,-33.888,76.900,-168.1624,8.4405,-217.8325
C00064=40.746,-35.253,75.988,-174.0559,26.5997,-220.8660
C00065=39.124,-36.906,75.948,179.8313,28.1098,-223.3290
C00066=38.025,-38.025,75.975,-180.0000,28.0967,-225.0000
C00067=36.906,-39.124,75.948,-179.8313,28.1098,-226.6710
C00068=35.253,-40.746,75.988,174.0559,26.5997,-229.1340
C00069=33.888,-43.637,76.901,168.1624,8.4405,-232.1675
C00070=35.631,-47.192,79.173,-177.8236,-0.0563,-232.9464
C00071=39.437,-52.115,82.228,-176.7520,-0.0208,-232.8841
C00072=44.341,-58.339,85.234,-176.6315,-0.0113,-232.7631
C00073=49.554,-65.004,87.424,-176.6978,-0.0087,-232.6809
C00074=54.067,-71.124,88.468,-177.0304,-0.5081,-232.7587
C00075=55.387,-77.537,89.008,-178.5849,-1.1940,-234.4606
C00076=53.243,-83.458,89.443,-179.6739,-0.7993,-237.4637
C00077=48.097,-87.670,89.878,-179.9969,-0.0540,-241.2502
C00078=41.650,-90.913,90.162,179.9976,-0.0052,-245.3860
C00079=34.834,-93.736,90.162,179.9980,-0.0054,-249.6140
C00080=27.983,-96.002,89.878,-179.9979,-0.0543,-253.7495
C00081=21.365,-96.662,89.443,179.6771,-0.7971,-257.5364
C00082=15.662,-93.991,89.008,178.5867,-1.1939,-260.5396
C00083=12.061,-88.524,88.468,177.0328,-0.5045,-262.2415
C00084=10.924,-81.005,87.424,176.6961,-0.0057,-262.3197
C00085=9.898,-72.606,85.234,176.6314,-0.0094,-262.2370
C00086=8.965,-64.737,82.228,176.7507,-0.0188,-262.1156
C00087=8.175,-58.565,79.173,177.8225,-0.0548,-262.0535
C00088=6.894,-54.818,76.900,-168.1623,8.4382,-262.8320
C00089=3.884,-53.739,75.988,-174.0567,26.6026,-265.8661
C00090=1.568,-53.762,75.948,179.8334,28.1117,-268.3294
C00091=0.000,-53.776,75.975,-180.0000,28.1001,-270.0000
C00092=-1.568,-53.762,75.948,-179.8334,28.1117,-271.6706
C00093=-3.885,-53.739,75.988,174.0562,26.6025,-274.1349
C00094=-6.894,-54.819,76.901,168.1623,8.4383,-277.1678
C00095=-8.175,-58.565,79.173,-177.8225,-0.0548,-277.9465
C00096=-8.965,-64.737,82.228,-176.7507,-0.0188,-277.8844
C00097=-9.898,-72.606,85.234,-176.6314,-0.0094,-277.7630
C00098=-10.924,-81.005,87.424,-176.6961,-0.0057,-277.6803
C00099=-12.061,-88.524,88.468,-177.0328,-0.5045,-277.7585
C00100=-15.662,-93.991,89.008,-178.5867,-1.1939,-279.4604
C00101=-21.365,-96.662,89.443,-179.6771,-0.7971,-282.4636
C00102=-27.983,-96.002,89.878,179.9979,-0.0543,-286.2505
C00103=-34.834,-93.736,90.162,-179.9980,-0.0054,-290.3860
C00104=-41.650,-90.913,90.162,-179.9976,-0.0052,-294.6140
C00105=-48.097,-87.670,89.878,179.9969,-0.0540,-298.7498
C00106=-53.243,-83.458,89.443,179.6739,-0.7993,-302.5363
C00107=-55.387,-77.537,89.008,178.5849,-1.1940,-305.5394
C00108=-54.067,-71.124,88.468,177.0304,-0.5081,-307.2413
C00109=-49.554,-65.004,87.424,176.6978,-0.0087,-307.3191
C00110=-44.341,-58.339,85.234,176.6315,-0.0113,-307.2369
C00111=-39.437,-52.115,82.228,176.7520,-0.0208,-307.1159
C00112=-35.631,-47.192,79.173,177.8236,-0.0563,-307.0536
C00113=-33.888,-43.637,76.900,-168.1624,8.4405,-307.8325
C00114=-35.253,-40.746,75.988,-174.0559,26.5997,-310.8660
C00115=-36.906,-39.124,75.948,179.8313,28.1098,-313.3290
C00116=-38.025,-38.025,75.975,-180.0000,28.0967,-315.0000
C00117=-39.124,-36.906,75.948,-179.8313,28.1098,-316.6710
C00118=-40.746,-35.253,75.988,174.0559,26.5997,-319.1340
C00119=-43.637,-33.888,76.901,168.1624,8.4405,-322.1675
C00120=-47.192,-35.631,79.173,-177.8236,-0.0563,-322.9464
C00121=-52.115,-39.437,82.228,-176.7520,-0.0208,-322.8841
C00122=-58.339,-44.341,85.234,-176.6315,-0.0113,-322.7631
C00123=-65.004,-49.554,87.424,-176.6978,-0.0087,-322.6809
C00124=-71.124,-54.067,88.468,-177.0304,-0.5081,-322.7587
C00125=-77.537,-55.387,89.008,-178.5849,-1.1940,-324.4606
C00126=-83.458,-53.243,89.443,-179.6739,-0.7993,-327.4637
C00127=-87.670,-48.097,89.878,-179.9969,-0.0540,-331.2502
C00128=-90.913,-41.650,90.162,179.9976,-0.0052,-335.3860
C00129=-93.736,-34.834,90.162,179.9980,-0.0054,-339.6140
C00130=-96.002,-27.983,89.878,-179.9979,-0.0543,-343.7495
C00131=-96.662,-21.365,89.443,179.6771,-0.7971,-347.5364
C00132=-93.991,-15.662,89.008,178.5867,-1.1939,-350.5396
C00133=-88.524,-12.061,88.468,177.0328,-0.5045,-352.2415
C00134=-81.005,-10.924,87.424,176.6961,-0.0057,-352.3197
C00135=-72.606,-9.898,85.234,176.6314,-0.0094,-352.2370
C00136=-64.737,-8.965,82.228,176.7507,-0.0188,-352.1156
C00137=-58.565,-8.175,79.173,177.8225,-0.0548,-352.0535
C00138=-54.818,-6.894,76.900,-168.1623,8.4382,-352.8320
C00139=-53.739,-3.884,75.988,-174.0567,26.6026,-355.8661
C00140=-53.762,-1.568,75.948,179.8334,28.1117,-358.3294
C00141=-53.776,0.000,75.975,-180.0000,28.1001,-360.0000
C00142=-53.762,1.568,75.948,-179.8334,28.1117,-361.6706
C00143=-53.739,3.885,75.988,174.0562,26.6025,-364.1349
C00144=-54.819,6.894,76.901,168.1623,8.4383,-367.1678
C00145=-58.565,8.175,79.173,-177.8225,-0.0548,-367.9465
C00146=-64.737,8.965,82.228,-176.7507,-0.0188,-367.8844
C00147=-72.606,9.898,85.234,-176.6314,-0.0094,-367.7630
C00148=-81.005,10.924,87.424,-176.6961,-0.0057,-367.6803
C00149=-88.524,12.061,88.468,-177.0328,-0.5045,-367.7585
C00150=-93.991,15.662,89.008,-178.5867,-1.1939,-369.4604
C00151=-96.662,21.365,89.443,-179.6771,-0.7971,-372.4636
C00152=-96.002,27.983,89.878,179.9979,-0.0543,-376.2505
C00153=-93.736,34.834,90.162,-179.9980,-0.0054,-380.3860
C00154=-90.913,41.650,90.162,-179.9976,-0.0052,-384.6140
C00155=-87.670,48.097,89.878,179.9969,-0.0540,-388.7498
C00156=-83.458,53.243,89.443,179.6739,-0.7993,-392.5363
C00157=-77.537,55.387,89.008,178.5849,-1.1940,-395.5394
C00158=-71.124,54.067,88.468,177.0304,-0.5081,-397.2413
C00159=-65.004,49.554,87.424,176.6978,-0.0087,-397.3191
C00160=-58.339,44.341,85.234,176.6315,-0.0113,-397.2369
C00161=-52.115,39.437,82.228,176.7520,-0.0208,-397.1159
C00162=-47.192,35.631,79.173,177.8236,-0.0563,-397.0536
C00163=-43.637,33.888,76.900,-168.1624,8.4405,-397.8325
C00164=-40.746,35.253,75.988,-174.0559,26.5997,-400.8660
C00165=-39.124,36.906,75.948,179.8313,28.1098,-403.3290
C00166=-38.025,38.025,75.975,-180.0000,28.0967,-405.0000
C00167=-36.906,39.124,75.948,-179.8313,28.1098,-406.6710
C00168=-35.253,40.746,75.988,174.0559,26.5997,-409.1340
C00169=-33.888,43.637,76.901,168.1624,8.4405,-412.1675
C00170=-35.631,47.192,79.173,-177.8236,-0.0563,-412.9464
///TOOL 0
///POSTYPE ANGLE
///ANGLE
EC00000=0.0000,90.0000
EC00001=-0.7971,102.4636
EC00002=-0.0543,106.2505
EC00003=-0.0054,110.3860
EC00004=-0.0052,114.6140
EC00005=-0.0540,118.7498
EC00006=-0.7993,122.5363
EC00007=-1.1940,125.5394
EC00008=-0.5081,127.2413
EC00009=-0.0087,127.3191
EC00010=-0.0113,127.2369
EC00011=-0.0208,127.1159
EC00012=-0.0563,127.0536
EC00013=8.4405,127.8325
EC00014=26.5997,130.8660
EC00015=28.1098,133.3290
EC00016=28.0967,135.0000
EC00017=28.1098,136.6710
EC00018=26.5997,139.1340
EC00019=8.4405,142.1675
EC00020=-0.0563,142.9464
EC00021=-0.0208,142.8841
EC00022=-0.0113,142.7631
EC00023=-0.0087,142.6809
EC00024=-0.5081,142.7587
EC00025=-1.1940,144.4606
EC00026=-0.7993,147.4637
EC00027=-0.0540,151.2502
EC00028=-0.0052,155.3860
EC00029=-0.0054,159.6140
EC00030=-0.0543,163.7495
EC00031=-0.7971,167.5364
EC00032=-1.1939,170.5396
EC00033=-0.5045,172.2415
EC00034=-0.0057,172.3197
EC00035=-0.0094,172.2370
EC00036=-0.0188,172.1156
EC00037=-0.0548,172.0535
EC00038=8.4382,172.8320
EC00039=26.6026,175.8661
EC00040=28.1117,178.3294
EC00041=28.1001,180.0000
EC00042=28.1117,181.6706
EC00043=26.6025,184.1349
EC00044=8.4383,187.1678
EC00045=-0.0548,187.9465
EC00046=-0.0188,187.8844
EC00047=-0.0094,187.7630
EC00048=-0.0057,187.6803
EC00049=-0.5045,187.7585
EC00050=-1.1939,189.4604
EC00051=-0.7971,192.4636
EC00052=-0.0543,196.2505
EC00053=-0.0054,200.3860
EC00054=-0.0052,204.6140
EC00055=-0.0540,208.7498
EC00056=-0.7993,212.5363
EC00057=-1.1940,215.5394
EC00058=-0.5081,217.2413
EC00059=-0.0087,217.3191
EC00060=-0.0113,217.2369
EC00061=-0.0208,217.1159
EC00062=-0.0563,217.0536
EC00063=8.4405,217.8325
EC00064=26.5997,220.8660
EC00065=28.1098,223.3290
EC00066=28.0967,225.0000
EC00067=28.1098,226.6710
EC00068=26.5997,229.1340
EC00069=8.4405,232.1675
EC00070=-0.0563,232.9464
EC00071=-0.0208,232.8841
EC00072=-0.0113,232.7631
EC00073=-0.0087,232.6809
EC00074=-0.5081,232.7587
EC00075=-1.1940,234.4606
EC00076=-0.7993,237.4637
EC00077=-0.0540,241.2502
EC00078=-0.0052,245.3860
EC00079=-0.0054,249.6140
EC00080=-0.0543,253.7495
EC00081=-0.7971,257.5364
EC00082=-1.1939,260.5396
EC00083=-0.5045,262.2415
EC00084=-0.0057,262.3197
EC00085=-0.0094,262.2370
EC00086=-0.0188,262.1156
EC00087=-0.0548,262.0535
EC00088=8.4382,262.8320
EC00089=26.6026,265.8661
EC00090=28.1117,268.3294
EC00091=28.1001,270.0000
EC00092=28.1117,271.6706
EC00093=26.6025,274.1349
EC00094=8.4383,277.1678
EC00095=-0.0548,277.9465
EC00096=-0.0188,277.8844
EC00097=-0.0094,277.7630
EC00098=-0.0057,277.6803
EC00099=-0.5045,277.7585
EC00100=-1.1939,279.4604
EC00101=-0.7971,282.4636
EC00102=-0.0543,286.2505
EC00103=-0.0054,290.3860
EC00104=-0.0052,294.6140
EC00105=-0.0540,298.7498
EC00106=-0.7993,302.5363
EC00107=-1.1940,305.5394
EC00108=-0.5081,307.2413
EC00109=-0.0087,307.3191
EC00110=-0.0113,307.2369
EC00111=-0.0208,307.1159
EC00112=-0.0563,307.0536
EC00113=8.4405,307.8325
EC00114=26.5997,310.8660
EC00115=28.1098,313.3290
EC00116=28.0967,315.0000
EC00117=28.1098,316.6710
EC00118=26.5997,319.1340
EC00119=8.4405,322.1675
EC00120=-0.0563,322.9464
EC00121=-0.0208,322.8841
EC00122=-0.0113,322.7631
EC00123=-0.0087,322.6809
EC00124=-0.5081,322.7587
EC00125=-1.1940,324.4606
EC00126=-0.7993,327.4637
EC00127=-0.0540,331.2502
EC00128=-0.0052,335.3860
EC00129=-0.0054,339.6140
EC00130=-0.0543,343.7495
EC00131=-0.7971,347.5364
EC00132=-1.1939,350.5396
EC00133=-0.5045,352.2415
EC00134=-0.0057,352.3197
EC00135=-0.0094,352.2370
EC00136=-0.0188,352.1156
EC00137=-0.0548,352.0535
EC00138=8.4382,352.8320
EC00139=26.6026,355.8661
EC00140=28.1117,358.3294
EC00141=28.1001,360.0000
EC00142=28.1117,361.6706
EC00143=26.6025,364.1349
EC00144=8.4383,367.1678
EC00145=-0.0548,367.9465
EC00146=-0.0188,367.8844
EC00147=-0.0094,367.7630
EC00148=-0.0057,367.6803
EC00149=-0.5045,367.7585
EC00150=-1.1939,369.4604
EC00151=-0.7971,372.4636
EC00152=-0.0543,376.2505
EC00153=-0.0054,380.3860
EC00154=-0.0052,384.6140
EC00155=-0.0540,388.7498
EC00156=-0.7993,392.5363
EC00157=-1.1940,395.5394
EC00158=-0.5081,397.2413
EC00159=-0.0087,397.3191
EC00160=-0.0113,397.2369
EC00161=-0.0208,397.1159
EC00162=-0.0563,397.0536
EC00163=8.4405,397.8325
EC00164=26.5997,400.8660
EC00165=28.1098,403.3290
EC00166=28.0967,405.0000
EC00167=28.1098,406.6710
EC00168=26.5997,409.1340
EC00169=8.4405,412.1675
EC00170=-0.0563,412.9464
//INST
///DATE 2021/09/28 15:27
///COMM
///ATTR SC,RW,RJ
////FRAME USER 2
///GROUP1 RB1
///GROUP2 ST1
NOP
SMOVL C00000 +MOVJ EC00000
SPEED V=10.0
ARCON
SMOVL C00001 +MOVJ EC00001
SMOVL C00002 +MOVJ EC00002
SMOVL C00003 +MOVJ EC00003
SMOVL C00004 +MOVJ EC00004
SMOVL C00005 +MOVJ EC00005
SMOVL C00006 +MOVJ EC00006
SMOVL C00007 +MOVJ EC00007
SMOVL C00008 +MOVJ EC00008
SMOVL C00009 +MOVJ EC00009
SMOVL C00010 +MOVJ EC00010
SMOVL C00011 +MOVJ EC00011
SMOVL C00012 +MOVJ EC00012
SMOVL C00013 +MOVJ EC00013
SMOVL C00014 +MOVJ EC00014
SMOVL C00015 +MOVJ EC00015
SMOVL C00016 +MOVJ EC00016
SMOVL C00017 +MOVJ EC00017
SMOVL C00018 +MOVJ EC00018
SMOVL C00019 +MOVJ EC00019
SMOVL C00020 +MOVJ EC00020
SMOVL C00021 +MOVJ EC00021
SMOVL C00022 +MOVJ EC00022
SMOVL C00023 +MOVJ EC00023
SMOVL C00024 +MOVJ EC00024
SMOVL C00025 +MOVJ EC00025
SMOVL C00026 +MOVJ EC00026
SMOVL C00027 +MOVJ EC00027
SMOVL C00028 +MOVJ EC00028
SMOVL C00029 +MOVJ EC00029
SMOVL C00030 +MOVJ EC00030
SMOVL C00031 +MOVJ EC00031
SMOVL C00032 +MOVJ EC00032
SMOVL C00033 +MOVJ EC00033
SMOVL C00034 +MOVJ EC00034
SMOVL C00035 +MOVJ EC00035
SMOVL C00036 +MOVJ EC00036
SMOVL C00037 +MOVJ EC00037
SMOVL C00038 +MOVJ EC00038
SMOVL C00039 +MOVJ EC00039
SMOVL C00040 +MOVJ EC00040
SMOVL C00041 +MOVJ EC00041
SMOVL C00042 +MOVJ EC00042
SMOVL C00043 +MOVJ EC00043
SMOVL C00044 +MOVJ EC00044
SMOVL C00045 +MOVJ EC00045
SMOVL C00046 +MOVJ EC00046
SMOVL C00047 +MOVJ EC00047
SMOVL C00048 +MOVJ EC00048
SMOVL C00049 +MOVJ EC00049
SMOVL C00050 +MOVJ EC00050
SMOVL C00051 +MOVJ EC00051
SMOVL C00052 +MOVJ EC00052
SMOVL C00053 +MOVJ EC00053
SMOVL C00054 +MOVJ EC00054
SMOVL C00055 +MOVJ EC00055
SMOVL C00056 +MOVJ EC00056
SMOVL C00057 +MOVJ EC00057
SMOVL C00058 +MOVJ EC00058
SMOVL C00059 +MOVJ EC00059
SMOVL C00060 +MOVJ EC00060
SMOVL C00061 +MOVJ EC00061
SMOVL C00062 +MOVJ EC00062
SMOVL C00063 +MOVJ EC00063
SMOVL C00064 +MOVJ EC00064
SMOVL C00065 +MOVJ EC00065
SMOVL C00066 +MOVJ EC00066
SMOVL C00067 +MOVJ EC00067
SMOVL C00068 +MOVJ EC00068
SMOVL C00069 +MOVJ EC00069
SMOVL C00070 +MOVJ EC00070
SMOVL C00071 +MOVJ EC00071
SMOVL C00072 +MOVJ EC00072
SMOVL C00073 +MOVJ EC00073
SMOVL C00074 +MOVJ EC00074
SMOVL C00075 +MOVJ EC00075
SMOVL C00076 +MOVJ EC00076
SMOVL C00077 +MOVJ EC00077
SMOVL C00078 +MOVJ EC00078
SMOVL C00079 +MOVJ EC00079
SMOVL C00080 +MOVJ EC00080
SMOVL C00081 +MOVJ EC00081
SMOVL C00082 +MOVJ EC00082
SMOVL C00083 +MOVJ EC00083
SMOVL C00084 +MOVJ EC00084
SMOVL C00085 +MOVJ EC00085
SMOVL C00086 +MOVJ EC00086
SMOVL C00087 +MOVJ EC00087
SMOVL C00088 +MOVJ EC00088
SMOVL C00089 +MOVJ EC00089
SMOVL C00090 +MOVJ EC00090
SMOVL C00091 +MOVJ EC00091
SMOVL C00092 +MOVJ EC00092
SMOVL C00093 +MOVJ EC00093
SMOVL C00094 +MOVJ EC00094
SMOVL C00095 +MOVJ EC00095
SMOVL C00096 +MOVJ EC00096
SMOVL C00097 +MOVJ EC00097
SMOVL C00098 +MOVJ EC00098
SMOVL C00099 +MOVJ EC00099
SMOVL C00100 +MOVJ EC00100
SMOVL C00101 +MOVJ EC00101
SMOVL C00102 +MOVJ EC00102
SMOVL C00103 +MOVJ EC00103
SMOVL C00104 +MOVJ EC00104
SMOVL C00105 +MOVJ EC00105
SMOVL C00106 +MOVJ EC00106
SMOVL C00107 +MOVJ EC00107
SMOVL C00108 +MOVJ EC00108
SMOVL C00109 +MOVJ EC00109
SMOVL C00110 +MOVJ EC00110
SMOVL C00111 +MOVJ EC00111
SMOVL C00112 +MOVJ EC00112
SMOVL C00113 +MOVJ EC00113
SMOVL C00114 +MOVJ EC00114
SMOVL C00115 +MOVJ EC00115
SMOVL C00116 +MOVJ EC00116
SMOVL C00117 +MOVJ EC00117
SMOVL C00118 +MOVJ EC00118
SMOVL C00119 +MOVJ EC00119
SMOVL C00120 +MOVJ EC00120
SMOVL C00121 +MOVJ EC00121
SMOVL C00122 +MOVJ EC00122
SMOVL C00123 +MOVJ EC00123
SMOVL C00124 +MOVJ EC00124
SMOVL C00125 +MOVJ EC00125
SMOVL C00126 +MOVJ EC00126
SMOVL C00127 +MOVJ EC00127
SMOVL C00128 +MOVJ EC00128
SMOVL C00129 +MOVJ EC00129
SMOVL C00130 +MOVJ EC00130
SMOVL C00131 +MOVJ EC00131
SMOVL C00132 +MOVJ EC00132
SMOVL C00133 +MOVJ EC00133
SMOVL C00134 +MOVJ EC00134
SMOVL C00135 +MOVJ EC00135
SMOVL C00136 +MOVJ EC00136
SMOVL C00137 +MOVJ EC00137
SMOVL C00138 +MOVJ EC00138
SMOVL C00139 +MOVJ EC00139
SMOVL C00140 +MOVJ EC00140
SMOVL C00141 +MOVJ EC00141
SMOVL C00142 +MOVJ EC00142
SMOVL C00143 +MOVJ EC00143
SMOVL C00144 +MOVJ EC00144
SMOVL C00145 +MOVJ EC00145
SMOVL C00146 +MOVJ EC00146
SMOVL C00147 +MOVJ EC00147
SMOVL C00148 +MOVJ EC00148
SMOVL C00149 +MOVJ EC00149
SMOVL C00150 +MOVJ EC00150
SMOVL C00151 +MOVJ EC00151
SMOVL C00152 +MOVJ EC00152
SMOVL C00153 +MOVJ EC00153
SMOVL C00154 +MOVJ EC00154
SMOVL C00155 +MOVJ EC00155
SMOVL C00156 +MOVJ EC00156
SMOVL C00157 +MOVJ EC00157
SMOVL C00158 +MOVJ EC00158
SMOVL C00159 +MOVJ EC00159
SMOVL C00160 +MOVJ EC00160
SMOVL C00161 +MOVJ EC00161
SMOVL C00162 +MOVJ EC00162
SMOVL C00163 +MOVJ EC00163
SMOVL C00164 +MOVJ EC00164
SMOVL C00165 +MOVJ EC00165
SMOVL C00166 +MOVJ EC00166
SMOVL C00167 +MOVJ EC00167
SMOVL C00168 +MOVJ EC00168
SMOVL C00169 +MOVJ EC00169
SMOVL C00170 +MOVJ EC00170
END
